svg/u25aa.svg

<svg viewBox="0 0 128 128" xmlns="http://www.w3.org/2000/svg">
  <g>
    <path d="M50.66,48.05h26c1.6,0,2.9,1.3,2.9,2.9v0v26c0,1.6-1.3,2.9-2.9,2.9l0,0h-26c-1.6,0-2.9-1.3-2.9-2.9 l0,0v-25.9c-0.08-1.58,1.14-2.92,2.72-3C50.54,48.05,50.6,48.05,50.66,48.05z" fill="#575757"/>
    <path d="M50.66,48.05h21.4c1.6,0,2.9,1.3,2.9,2.9v0v21.4c0,1.6-1.3,2.9-2.9,2.9l0,0h-21.4 c-1.6,0-2.9-1.3-2.9-2.9l0,0v-21.3c-0.08-1.58,1.14-2.92,2.72-3C50.54,48.05,50.6,48.05,50.66,48.05z" fill="#424242"/>
    <path d="M56.86,51.05c0-0.6-0.4-0.8-2.9-0.7c-2.1,0.1-3.1,0.3-3.7,1.1s-0.8,2.3-0.8,4.2c0,1.3,0,2.5,0.7,2.5 c0.9,0,0.9-2.1,1.7-3.3C53.26,52.45,56.86,51.85,56.86,51.05z" fill="#787878"/>
  </g>
</svg>

<svg viewBox="0 0 128 128" xmlns="http://www.w3.org/2000/svg">
  <defs/>
  <path d="M50.66,48.05 L76.66,48.05 C78.26,48.05 79.56,49.35 79.56,50.95 L79.56,50.95 L79.56,76.95 C79.56,78.55 78.26,79.85 76.66,79.85 L76.66,79.85 L50.66,79.85 C49.06,79.85 47.76,78.55 47.76,76.95 L47.76,76.95 L47.76,51.05 C47.68,49.47 48.9,48.13 50.48,48.05 C50.54,48.05 50.6,48.05 50.66,48.05 Z" fill="#575757"/>
  <path d="M50.66,48.05 L72.06,48.05 C73.66,48.05 74.96,49.35 74.96,50.95 L74.96,50.95 L74.96,72.35 C74.96,73.95 73.66,75.25 72.06,75.25 L72.06,75.25 L50.66,75.25 C49.06,75.25 47.76,73.95 47.76,72.35 L47.76,72.35 L47.76,51.05 C47.68,49.47 48.9,48.13 50.48,48.05 C50.54,48.05 50.6,48.05 50.66,48.05 Z" fill="#424242"/>
  <path d="M56.86,51.05 C56.86,50.45 56.46,50.25 53.96,50.35 C51.86,50.45 50.86,50.65 50.26,51.45 C49.66,52.25 49.46,53.75 49.46,55.65 C49.46,56.95 49.46,58.15 50.16,58.15 C51.06,58.15 51.06,56.05 51.86,54.85 C53.26,52.45 56.86,51.85 56.86,51.05 Z" fill="#787878"/>
</svg>
